svg/fluentui-system-icons/ic_fluent_history_48_filled.svg

<svg width="48" height="48" viewBox="0 0 48 48" fill="none" xmlns="http://www.w3.org/2000/svg">
<path d="M9 24C9 32.2843 15.7157 39 24 39C32.2843 39 39 32.2843 39 24C39 15.7157 32.2843 9 24 9C19.9313 9 16.241 10.6199 13.5387 13.25H16.75C17.5784 13.25 18.25 13.9216 18.25 14.75C18.25 15.5784 17.5784 16.25 16.75 16.25H10.25C9.42157 16.25 8.75 15.5784 8.75 14.75V8.25C8.75 7.42157 9.42157 6.75 10.25 6.75C11.0784 6.75 11.75 7.42157 11.75 8.25V10.8114C14.9628 7.82581 19.2682 6 24 6C33.9411 6 42 14.0589 42 24C42 33.9411 33.9411 42 24 42C14.0589 42 6 33.9411 6 24C6 23.4785 6.02218 22.9622 6.06564 22.452C6.13735 21.61 6.8678 21 7.71277 21C8.53304 21 9.1446 21.7528 9.06734 22.5694C9.02279 23.0403 9 23.5175 9 24ZM25 15.5C25 14.6716 24.3284 14 23.5 14C22.6716 14 22 14.6716 22 15.5V25.5C22 26.3284 22.6716 27 23.5 27H28.5C29.3284 27 30 26.3284 30 25.5C30 24.6716 29.3284 24 28.5 24H25V15.5Z" fill="#212121"/>
</svg>

<svg xmlns="http://www.w3.org/2000/svg" width="48" height="48"><path d="M9 24c0 8.284 6.716 15 15 15 8.284 0 15-6.716 15-15 0-8.284-6.716-15-15-15a14.95 14.95 0 0 0-10.461 4.25h3.211a1.5 1.5 0 0 1 0 3h-6.5a1.5 1.5 0 0 1-1.5-1.5v-6.5a1.5 1.5 0 1 1 3 0v2.561A17.936 17.936 0 0 1 24 6c9.941 0 18 8.059 18 18s-8.059 18-18 18S6 33.941 6 24c0-.521.022-1.038.066-1.548C6.137 21.61 6.868 21 7.713 21c.82 0 1.432.753 1.354 1.57C9.023 23.04 9 23.516 9 24Zm16-8.5a1.5 1.5 0 0 0-3 0v10a1.5 1.5 0 0 0 1.5 1.5h5a1.5 1.5 0 0 0 0-3H25v-8.5Z"/></svg>
